!! 00000] TT[WS
!!!OTL: Guan hua
!!!ARE: Asia, China,ÿShanxi Xiangfen
!! Ethnic Group: Han
!! WI, 170 (2)
!!!SCT: J0205
!!!YEM: Copyright 1995, estate of Helmut Schaffrath.
**kern
*ICvox
*Ivox
*M3/8
*k[f#]
*G:
{16ee
16gg
8.cc
16b
=1
16ee
16gg
8.cc
16b
=2
16a
16b
4a}
=3
{16ee
16gg
8.cc
16b
=4
16ee
16gg
8.cc
16b
=5
16a
16b
4a}
=6
{8dd
8dd
16a
16b
=7
8.gg
16b
16a
16cc
=8
8.gg
16b
16a
16cc}
=9
{8.f#
16e
16d
16e
=10
4d
8r}
==
!!!AGN: Xiaodiao. Fengsuge, Qingge
!!!ONB: ESAC (Essen Associative Code) Database: CHINA
!!!AMT: simple triple
!!!AIN: vox
!!!EED: Helmut Schaffrath
!!!EEV: 1.0
*-
